usr/share/icons/biglinux-icons-material/32/actions/document-properties.svg

<svg version="1.1" viewBox="0 0 32 32" xmlns="http://www.w3.org/2000/svg">
 <defs>
  <style id="current-color-scheme" type="text/css">.ColorScheme-Text {
        color:#363636;
      }</style>
 </defs>
 <path class="ColorScheme-Text" d="m15 12v1h10v-1zm0 5v1h8v-1zm0 5v1h4v-1z" fill="currentColor"/>
 <path d="m7 4c-1.662 0-3 1.338-3 3v18c0 1.662 1.338 3 3 3h18c1.662 0 3-1.338 3-3v-18c0-1.662-1.338-3-3-3h-18zm0 1h18c1.108 0 2 0.892 2 2v1h-22v-1c0-1.108 0.892-2 2-2zm-2 4h22v16c0 1.108-0.892 2-2 2h-18c-1.108 0-2-0.892-2-2v-16z" class="ColorScheme-Text" fill="currentColor"/>
 <path d="m8 11c-0.554 0-1 0.446-1 1v12c0 0.554 0.446 1 1 1h4c0.554 0 1-0.446 1-1v-12c0-0.554-0.446-1-1-1h-4zm0 1h4v12h-4v-12z" class="ColorScheme-Text" fill="currentColor"/>
</svg>

<svg xmlns="http://www.w3.org/2000/svg" viewBox="0 0 32 32"><defs><style id="current-color-scheme" type="text/css">.ColorScheme-Text{color:#dedede}</style></defs><path fill="currentColor" d="M15 12v1h10v-1zm0 5v1h8v-1zm0 5v1h4v-1z" class="ColorScheme-Text"/><path fill="currentColor" d="M7 4C5.338 4 4 5.338 4 7v18c0 1.662 1.338 3 3 3h18c1.662 0 3-1.338 3-3V7c0-1.662-1.338-3-3-3H7zm0 1h18c1.108 0 2 .892 2 2v1H5V7c0-1.108.892-2 2-2zM5 9h22v16c0 1.108-.892 2-2 2H7c-1.108 0-2-.892-2-2V9z" class="ColorScheme-Text"/><path fill="currentColor" d="M8 11c-.554 0-1 .446-1 1v12c0 .554.446 1 1 1h4c.554 0 1-.446 1-1V12c0-.554-.446-1-1-1H8zm0 1h4v12H8V12z" class="ColorScheme-Text"/></svg>
